src/Assets/SVG/Asset 13.svg

<svg id="egec4ros0k6l1" xmlns="http://www.w3.org/2000/svg" xmlns:xlink="http://www.w3.org/1999/xlink" viewBox="0 0 452.850000 392.350000" shape-rendering="geometricPrecision" text-rendering="geometricPrecision"><style><![CDATA[#egec4ros0k6l20_tr {animation: egec4ros0k6l20_tr__tr 2000ms linear infinite normal forwards}@keyframes egec4ros0k6l20_tr__tr { 0% {transform: translate(319.900359px,68.867360px) rotate(0deg)} 50% {transform: translate(319.900359px,68.867360px) rotate(15deg)} 100% {transform: translate(319.900359px,68.867360px) rotate(0deg)} }]]></style><g id="egec4ros0k6l2"><g id="egec4ros0k6l3"><path id="egec4ros0k6l4" d="M125.300000,47.350000C103.300000,54.020000,102.650000,49.810000,79.300000,57.350000C54.790000,65.260000,26.350000,74.450000,11.300000,96.350000C-12.640000,131.200000,8.100000,182.570000,13.300000,194.350000C38.140000,250.590000,80.210000,244.920000,97.300000,298.350000C108.030000,331.890000,96.710000,350.610000,115.300000,369.350000C127.780000,381.940000,144.300000,384.410000,177.300000,389.350000C202.814865,393.018933,228.698459,393.355083,254.300000,390.350000C278.870000,387.560000,276.230000,384.930000,305.300000,381.350000C342.680000,376.750000,349.920000,380.750000,368.300000,374.350000C378.370000,370.840000,403.220000,362.280000,414.300000,341.350000C434.460000,303.280000,389.040000,261.670000,411.300000,222.350000C420.730000,205.690000,430.150000,210.910000,438.300000,193.350000C453.490000,160.620000,421.530000,140.870000,434.300000,103.350000C440.970000,83.740000,455.890000,70.960000,452.300000,48.350000C451.720000,44.710000,451.040000,40.690000,448.300000,36.350000C439.770000,22.850000,422.520000,24.100000,397.300000,18.350000C364.730000,10.920000,365.930000,2.540000,344.300000,0.350000C320.550000,-2.050000,315.850000,8.610000,288.300000,12.350000C248.520000,17.740000,244.690000,-1.260000,212.300000,3.350000C176.810000,8.400000,176,32,125.300000,47.350000Z" transform="matrix(1 0 0 1 -0.00091417999997 -1.33982151500015)" opacity="0.18" fill="rgb(255,146,113)" stroke="none" stroke-width="1"/><ellipse id="egec4ros0k6l5" rx="7" ry="112.500000" transform="matrix(1 0 0 1 348.30000000000001 194.84999999999999)" opacity="0.28" fill="rgb(255,69,0)" stroke="none" stroke-width="1"/><ellipse id="egec4ros0k6l6" rx="80" ry="9.500000" transform="matrix(1 0 0 1 296.30000000000001 364.85000000000002)" opacity="0.28" fill="rgb(255,69,0)" stroke="none" stroke-width="1"/><rect id="egec4ros0k6l7" width="9" height="28" rx="0" ry="0" transform="matrix(0.22257000000000 -0.97491700000000 0.97491700000000 0.22257000000000 308.22081448000006 263.12717268000000)" fill="rgb(96,56,19)" stroke="none" stroke-width="1"/><rect id="egec4ros0k6l8" width="15" height="69.720000" rx="5.870000" ry="5" transform="matrix(0.22257000000000 -0.97491700000000 0.97491700000000 0.22257000000000 253.29914950000003 253.42244035000004)" fill="rgb(26,26,26)" stroke="none" stroke-width="1"/><rect id="egec4ros0k6l9" width="9" height="15" rx="0" ry="0" transform="matrix(0.22257000000000 -0.97491700000000 0.97491700000000 0.22257000000000 329.66649703000007 268.01099914000002)" fill="rgb(0,0,0)" stroke="none" stroke-width="1"/><path id="egec4ros0k6l10" d="M337,271.610000L357,271.610000C357.463919,271.610000,357.840000,271.986081,357.840000,272.450000L357.840000,280.400000L328.250000,280.400000L328.250000,280.400000C328.249950,275.560995,332.161045,271.632020,337,271.610000Z" transform="matrix(0.22257000000000 -0.97491700000000 0.97491700000000 0.22257000000000 -2.37000000000000 549.04999999999995)" fill="rgb(128,128,128)" stroke="none" stroke-width="1"/><path id="egec4ros0k6l11" d="M333.740000,275.580000L363.320000,275.580000C363.447304,275.580000,363.569394,275.630571,363.659411,275.720589C363.749429,275.810606,363.800000,275.932696,363.800000,276.060000L363.800000,277.500000C363.800000,277.963919,363.423919,278.340000,362.960000,278.340000L334.680000,278.340000C334.160852,278.340000,333.740000,277.919148,333.740000,277.400000L333.740000,275.570000Z" transform="matrix(0.22257000000000 -0.97491700000000 0.97491700000000 0.22257000000000 1.14000000000000 555.35000000000002)" fill="rgb(204,204,204)" stroke="none" stroke-width="1"/><circle id="egec4ros0k6l12" r="1.500000" transform="matrix(1 0 0 1 344.80000000000001 266.85000000000002)" fill="rgb(230,230,230)" stroke="none" stroke-width="1"/><path id="egec4ros0k6l13" d="M280.880000,196.320000L284.800000,196.320000C287.716063,196.320000,290.080000,198.683937,290.080000,201.600000L290.080000,261C290.080000,263.916063,287.716063,266.280000,284.800000,266.280000L282.490000,266.280000C278.684758,266.280000,275.600000,263.195242,275.600000,259.390000L275.600000,201.600000C275.600000,198.683937,277.963936,196.320000,280.880000,196.320000Z" transform="matrix(0.54741700000000 0.83686000000000 -0.83686000000000 0.54741700000000 321.54000000000002 -132.00999999999999)" fill="rgb(26,26,26)" stroke="none" stroke-width="1"/><path id="egec4ros0k6l14" d="M301.720000,119.590000L307.510000,119.590000L307.510000,154.130000L297.510000,154.130000L297.510000,123.800000C297.510000,121.474881,299.394881,119.590000,301.720000,119.590000Z" transform="matrix(-0.62142100000000 -0.78347700000000 0.78347700000000 -0.62142100000000 383.25000000000000 458.92000000000002)" fill="rgb(66,33,11)" stroke="none" stroke-width="1"/><rect id="egec4ros0k6l15" width="9.040000" height="47.510000" rx="0" ry="0" transform="matrix(0.57143000000000 -0.82065100000000 0.82065100000000 0.57143000000000 252.77699110999990 121.61214046999999)" fill="rgb(66,33,11)" stroke="none" stroke-width="1"/><rect id="egec4ros0k6l16" width="23.090000" height="14.120000" rx="7.060000" ry="15" transform="matrix(-0.65934600000000 -0.75184000000000 0.75184000000000 -0.65934600000000 252.24907089000001 124.40360233000004)" fill="rgb(66,33,11)" stroke="none" stroke-width="1"/><path id="egec4ros0k6l17" d="M315.740000,109.330000L318.740000,109.330000C319.593997,109.330000,320.413017,109.669249,321.016884,110.273116C321.620751,110.876983,321.960000,111.696003,321.960000,112.550000L321.960000,141.430000L311.060000,141.430000C310.982680,141.430000,310.920000,141.367320,310.920000,141.290000L310.920000,114.150000C310.920000,111.487987,313.077988,109.330000,315.740000,109.330000Z" transform="matrix(0.62142100000000 0.78347700000000 -0.78347700000000 0.62142100000000 218.06000000000000 -200.47000000000000)" fill="rgb(255,154,117)" stroke="none" stroke-width="1"/><path id="egec4ros0k6l18" d="M312.940000,101.450000L324.580000,101.450000C331.014117,101.450000,336.230000,106.665883,336.230000,113.100000L336.230000,185.450000C336.230000,187.659139,334.439139,189.450000,332.230000,189.450000L304.230000,189.450000C302.020861,189.450000,300.230000,187.659139,300.230000,185.450000L300.230000,114.160000C300.230000,107.140461,305.920461,101.450000,312.940000,101.450000Z" transform="matrix(0.97309900000000 0.23038900000000 -0.23038900000000 0.97309900000000 42.07000000000000 -69.40000000000001)" fill="rgb(255,146,113)" stroke="none" stroke-width="1"/><rect id="egec4ros0k6l19" width="9" height="26" rx="2.320000" ry="5" transform="matrix(0.97417300000000 -0.22580100000000 0.22580100000000 0.97417300000000 314.97198981999998 83.47101215999999)" fill="rgb(96,56,19)" stroke="none" stroke-width="1"/><g id="egec4ros0k6l20_tr" transform="translate(319.900359,68.867360) rotate(0)"><g id="egec4ros0k6l20" transform="translate(-319.900359,-68.867360)"><rect id="egec4ros0k6l21" width="5" height="8" rx="1.540000" ry="5" transform="matrix(0.97417300000000 -0.22580100000000 0.22580100000000 0.97417300000000 292.47561609000002 66.09967326999998)" fill="rgb(66,33,11)" stroke="none" stroke-width="1"/><path id="egec4ros0k6l22" d="M327.840000,83.600000L312,87.270000C305.947894,88.667196,299.907428,84.899735,298.500000,78.850000L291.500000,48.520000C290.676620,44.960905,292.891872,41.407550,296.450000,40.580000L320.330000,35C324.015662,34.151738,327.692581,36.446457,328.550000,40.130000L335.690000,71C336.321885,73.711977,335.849551,76.563911,334.377080,78.927368C332.904610,81.290824,330.552842,82.971841,327.840000,83.600000Z" fill="rgb(117,76,36)" stroke="none" stroke-width="1"/><path id="egec4ros0k6l23" d="M296.050000,26L319.500000,26C323.918278,26,327.500000,29.581722,327.500000,34L327.500000,45.640000C327.494529,48.041793,325.551774,49.989014,323.150000,50L291.890000,50C290.731004,50,289.619477,49.539591,288.799943,48.720057C287.980409,47.900523,287.520000,46.788996,287.520000,45.630000L287.520000,34.550000C287.517346,32.285051,288.414550,30.111814,290.014235,28.508377C291.613921,26.904941,293.785051,26.002651,296.050000,26Z" transform="matrix(0.97417300000000 -0.22580100000000 0.22580100000000 0.97417300000000 -0.64000000000000 70.39000000000000)" fill="rgb(0,0,0)" stroke="none" stroke-width="1"/><rect id="egec4ros0k6l24" width="2" height="35" rx="1" ry="0" transform="matrix(0.97421300000000 -0.22563100000000 0.22563100000000 0.97421300000000 297.50879215000003 49.46067355000000)" fill="rgb(0,0,0)" stroke="none" stroke-width="1"/><circle id="egec4ros0k6l25" r="1" transform="matrix(1 0 0 1 298.30000000000001 62.35000000000000)" fill="rgb(0,0,0)" stroke="none" stroke-width="1"/></g></g><path id="egec4ros0k6l26" d="M294.720000,134.590000L300.510000,134.590000L300.510000,169.130000L290.510000,169.130000L290.510000,138.800000C290.510000,136.474881,292.394881,134.590000,294.720000,134.590000Z" transform="matrix(-0.62142100000000 -0.78347700000000 0.78347700000000 -0.62142100000000 360.13999999999999 477.75999999999999)" fill="rgb(96,56,19)" stroke="none" stroke-width="1"/><path id="egec4ros0k6l27" d="M308.740000,124.330000L311.740000,124.330000C312.593997,124.330000,313.413017,124.669249,314.016884,125.273116C314.620751,125.876983,314.960000,126.696003,314.960000,127.550000L314.960000,156.430000L304.060000,156.430000C303.982680,156.430000,303.920000,156.367320,303.920000,156.290000L303.920000,129.150000C303.920000,126.487987,306.077988,124.330000,308.740000,124.330000Z" transform="matrix(0.62142100000000 0.78347700000000 -0.78347700000000 0.62142100000000 227.16000000000000 -189.30000000000001)" fill="rgb(255,154,117)" stroke="none" stroke-width="1"/><rect id="egec4ros0k6l28" width="9.040000" height="47.510000" rx="0" ry="0" transform="matrix(0.57143000000000 -0.82065100000000 0.82065100000000 0.57143000000000 245.77674610999989 136.60814746999995)" fill="rgb(96,56,19)" stroke="none" stroke-width="1"/><path id="egec4ros0k6l29" d="M244.060000,91.920000L245.110000,91.920000L245.110000,129.400000L243.860000,129.400000L243.860000,92.110000C243.860000,92.005066,243.945066,91.920000,244.050000,91.920000Z" transform="matrix(0.70710700000000 -0.70710700000000 0.70710700000000 0.70710700000000 -6.64000000000000 205.28999999999999)" fill="rgb(0,0,0)" stroke="none" stroke-width="1"/><rect id="egec4ros0k6l30" width="6.360000" height="36.060000" rx="0" ry="0" transform="matrix(0.70710700000000 -0.70710700000000 0.70710700000000 0.70710700000000 227.30131158000006 102.34445990000000)" fill="rgb(179,179,179)" stroke="none" stroke-width="1"/><path id="egec4ros0k6l31" d="M240.060000,95.920000L241.110000,95.920000L241.110000,133.400000L239.860000,133.400000L239.860000,96.110000C239.859928,96.057827,239.881312,96.007921,239.919137,95.971987C239.956963,95.936053,240.007900,95.917254,240.060000,95.920000Z" transform="matrix(0.70710700000000 -0.70710700000000 0.70710700000000 0.70710700000000 -10.64000000000000 203.63000000000000)" fill="rgb(0,0,0)" stroke="none" stroke-width="1"/><rect id="egec4ros0k6l32" width="1.250000" height="6.330000" rx="0.460000" ry="0" transform="matrix(0.67867300000000 0.73444100000000 -0.73444100000000 0.67867300000000 231.28193758999998 97.32177823000001)" fill="rgb(0,0,0)" stroke="none" stroke-width="1"/><rect id="egec4ros0k6l33" width="1.250000" height="6.360000" rx="0.410000" ry="0" transform="matrix(0.70710700000000 0.70710700000000 -0.70710700000000 0.70710700000000 257.33519507000005 123.37795353000007)" fill="rgb(0,0,0)" stroke="none" stroke-width="1"/><rect id="egec4ros0k6l34" width="23.090000" height="14.120000" rx="7.060000" ry="15" transform="matrix(-0.50000000000000 -0.86602500000000 0.86602500000000 -0.50000000000000 242.45563525000000 139.59805850000004)" fill="rgb(96,56,19)" stroke="none" stroke-width="1"/><path id="egec4ros0k6l35" d="M288.800000,183.110000L324.800000,183.110000L324.800000,211.540000C324.800000,217.929935,319.619935,223.110000,313.230000,223.110000L298.850000,223.110000C296.184574,223.110000,293.628317,222.051164,291.743577,220.166423C289.858836,218.281683,288.800000,215.725426,288.800000,213.060000L288.800000,183.110000Z" transform="matrix(0.99424500000000 0.10713200000000 -0.10713200000000 0.99424500000000 23.54000000000000 -31.72000000000000)" fill="rgb(51,51,51)" stroke="none" stroke-width="1"/><path id="egec4ros0k6l36" d="M292.880000,208.320000L296.800000,208.320000C299.716063,208.320000,302.080000,210.683937,302.080000,213.600000L302.080000,273C302.080000,275.916063,299.716063,278.280000,296.800000,278.280000L294.490000,278.280000C290.684758,278.280000,287.600000,275.195242,287.600000,271.390000L287.600000,213.600000C287.600000,210.683937,289.963936,208.320000,292.880000,208.320000Z" transform="matrix(0.86602500000000 0.50000000000000 -0.50000000000000 0.86602500000000 161.15000000000001 -114.81999999999999)" fill="rgb(51,51,51)" stroke="none" stroke-width="1"/><rect id="egec4ros0k6l37" width="9" height="28" rx="0" ry="0" transform="matrix(1 0 0 1 277.30000000000001 318.35000000000002)" fill="rgb(96,56,19)" stroke="none" stroke-width="1"/><rect id="egec4ros0k6l38" width="15" height="69.720000" rx="5.870000" ry="5" transform="matrix(1 0 0 1 274.52999999999997 262.64999999999998)" fill="rgb(51,51,51)" stroke="none" stroke-width="1"/><rect id="egec4ros0k6l39" width="9" height="15" rx="0" ry="0" transform="matrix(1 0 0 1 277.30000000000001 340.35000000000002)" fill="rgb(0,0,0)" stroke="none" stroke-width="1"/><path id="egec4ros0k6l40" d="M266.210000,354.260000L286.210000,354.260000C286.673919,354.260000,287.050000,354.636081,287.050000,355.100000L287.050000,363.050000L257.420000,363.050000L257.420000,363.050000C257.420000,358.195417,261.355417,354.260000,266.210000,354.260000Z" transform="matrix(0.99938500000000 0.03507400000000 -0.03507400000000 0.99938500000000 12.76000000000000 -9.34000000000000)" fill="rgb(128,128,128)" stroke="none" stroke-width="1"/><path id="egec4ros0k6l41" d="M257.360000,363.060000L286.940000,363.060000C287.067304,363.060000,287.189394,363.110571,287.279411,363.200589C287.369429,363.290606,287.420000,363.412696,287.420000,363.540000L287.420000,365C287.420000,365.463919,287.043919,365.840000,286.580000,365.840000L258.290000,365.840000C257.770852,365.840000,257.350000,365.419148,257.350000,364.900000L257.350000,363.070000Z" transform="matrix(0.99938500000000 0.03507400000000 -0.03507400000000 0.99938500000000 12.96000000000000 -9.34000000000000)" fill="rgb(204,204,204)" stroke="none" stroke-width="1"/><circle id="egec4ros0k6l42" r="1.500000" transform="matrix(1 0 0 1 282.80000000000001 358.85000000000002)" fill="rgb(230,230,230)" stroke="none" stroke-width="1"/></g></g></svg>

<svg xmlns="http://www.w3.org/2000/svg" viewBox="0 0 452.85 392.35"><defs><style>.cls-1,.cls-10{fill:#ff9271;}.cls-1{opacity:0.18;}.cls-2{fill:#ff4500;opacity:0.28;}.cls-3{fill:#603813;}.cls-4{fill:#1a1a1a;}.cls-5{fill:gray;}.cls-6{fill:#ccc;}.cls-7{fill:#e6e6e6;}.cls-8{fill:#42210b;}.cls-9{fill:#ff9a75;}.cls-11{fill:#754c24;}.cls-12{fill:#b3b3b3;}.cls-13{fill:#333;}</style></defs><title>Asset 13</title><g id="Layer_2" data-name="Layer 2"><g id="Layer_1-2" data-name="Layer 1"><path class="cls-1" d="M125.3,47.35c-22,6.67-22.65,2.46-46,10-24.51,7.91-52.95,17.1-68,39-23.94,34.85-3.2,86.22,2,98,24.84,56.24,66.91,50.57,84,104,10.73,33.54-.59,52.26,18,71,12.48,12.59,29,15.06,62,20a297.4,297.4,0,0,0,77,1c24.57-2.79,21.93-5.42,51-9,37.38-4.6,44.62-.6,63-7,10.07-3.51,34.92-12.07,46-33,20.16-38.07-25.26-79.68-3-119,9.43-16.66,18.85-11.44,27-29,15.19-32.73-16.77-52.48-4-90,6.67-19.61,21.59-32.39,18-55-.58-3.64-1.26-7.66-4-12-8.53-13.5-25.78-12.25-51-18-32.57-7.43-31.37-15.81-53-18-23.75-2.4-28.45,8.26-56,12-39.78,5.39-43.61-13.61-76-9C176.81,8.4,176,32,125.3,47.35Z"/><ellipse class="cls-2" cx="348.3" cy="194.85" rx="7" ry="112.5"/><ellipse class="cls-2" cx="296.3" cy="364.85" rx="80" ry="9.5"/><rect class="cls-3" x="318.36" y="247.84" width="9" height="28" transform="translate(-4.26 518.34) rotate(-77.14)"/><rect class="cls-4" x="281.45" y="219" width="15" height="69.72" rx="5.87" transform="translate(-22.85 479.07) rotate(-77.14)"/><rect x="333.48" y="257.79" width="9" height="15" transform="translate(4.12 535.75) rotate(-77.14)"/><path class="cls-5" d="M337,271.61h20a.84.84,0,0,1,.84.84v7.95a0,0,0,0,1,0,0H328.25a0,0,0,0,1,0,0v0A8.79,8.79,0,0,1,337,271.61Z" transform="translate(-2.37 549.05) rotate(-77.14)"/><path class="cls-6" d="M333.74,275.58h29.58a.48.48,0,0,1,.48.48v1.44a.84.84,0,0,1-.84.84H334.68a.94.94,0,0,1-.94-.94v-1.83A0,0,0,0,1,333.74,275.58Z" transform="translate(1.14 555.35) rotate(-77.14)"/><circle class="cls-7" cx="344.8" cy="266.85" r="1.5"/><path class="cls-4" d="M280.88,196.32h3.92a5.28,5.28,0,0,1,5.28,5.28V261a5.28,5.28,0,0,1-5.28,5.28h-2.31a6.89,6.89,0,0,1-6.89-6.89V201.6a5.28,5.28,0,0,1,5.28-5.28Z" transform="translate(321.54 -132.01) rotate(56.81)"/><path class="cls-8" d="M301.72,119.59h5.79a0,0,0,0,1,0,0v34.54a0,0,0,0,1,0,0h-10a0,0,0,0,1,0,0V123.8A4.21,4.21,0,0,1,301.72,119.59Z" transform="translate(383.25 458.92) rotate(-128.42)"/><rect class="cls-8" x="270.33" y="107.71" width="9.04" height="47.51" transform="translate(9.91 281.91) rotate(-55.15)"/><rect class="cls-8" x="238.26" y="104.01" width="23.09" height="14.12" rx="7.06" transform="translate(330.97 372.13) rotate(-131.25)"/><path class="cls-9" d="M315.74,109.33h3a3.22,3.22,0,0,1,3.22,3.22v28.88a0,0,0,0,1,0,0H311.06a.14.14,0,0,1-.14-.14V114.15a4.82,4.82,0,0,1,4.82-4.82Z" transform="translate(218.06 -200.47) rotate(51.58)"/><path class="cls-10" d="M312.94,101.45h11.64a11.65,11.65,0,0,1,11.65,11.65v72.35a4,4,0,0,1-4,4h-28a4,4,0,0,1-4-4V114.16a12.71,12.71,0,0,1,12.71-12.71Z" transform="translate(42.07 -69.4) rotate(13.32)"/><rect class="cls-3" x="317.79" y="82.15" width="9" height="26" rx="2.32" transform="translate(-13.16 75.2) rotate(-13.05)"/><rect class="cls-8" x="293.31" y="65.46" width="5" height="8" rx="1.54" transform="translate(-8.04 68.56) rotate(-13.05)"/><path class="cls-11" d="M327.84,83.6,312,87.27a11.26,11.26,0,0,1-13.5-8.42l-7-30.33a6.62,6.62,0,0,1,4.95-7.94L320.33,35a6.86,6.86,0,0,1,8.22,5.13L335.69,71A10.49,10.49,0,0,1,327.84,83.6Z"/><path d="M296.05,26h23.45a8,8,0,0,1,8,8V45.64A4.37,4.37,0,0,1,323.15,50H291.89a4.37,4.37,0,0,1-4.37-4.37V34.55A8.54,8.54,0,0,1,296.05,26Z" transform="translate(-0.64 70.39) rotate(-13.05)"/><rect x="301.43" y="48.76" width="2" height="35" rx="1" transform="translate(-7.15 69.97) rotate(-13.04)"/><path class="cls-3" d="M294.72,134.59h5.79a0,0,0,0,1,0,0v34.54a0,0,0,0,1,0,0h-10a0,0,0,0,1,0,0V138.8A4.21,4.21,0,0,1,294.72,134.59Z" transform="translate(360.14 477.76) rotate(-128.42)"/><path class="cls-9" d="M308.74,124.33h3a3.22,3.22,0,0,1,3.22,3.22v28.88a0,0,0,0,1,0,0H304.06a.14.14,0,0,1-.14-.14V129.15a4.82,4.82,0,0,1,4.82-4.82Z" transform="translate(227.16 -189.3) rotate(51.58)"/><circle cx="298.3" cy="62.35" r="1"/><rect class="cls-3" x="263.33" y="122.71" width="9.04" height="47.51" transform="translate(-5.4 282.59) rotate(-55.15)"/><path d="M244.06,91.92h1.05a0,0,0,0,1,0,0V129.4a0,0,0,0,1,0,0h-1.25a0,0,0,0,1,0,0V92.11a.19.19,0,0,1,.19-.19Z" transform="translate(-6.64 205.29) rotate(-45)"/><rect class="cls-12" x="239.12" y="94.82" width="6.36" height="36.06" transform="translate(-8.83 204.38) rotate(-45)"/><path d="M240.06,95.92h1.05a0,0,0,0,1,0,0V133.4a0,0,0,0,1,0,0h-1.25a0,0,0,0,1,0,0V96.11A.19.19,0,0,1,240.06,95.92Z" transform="translate(-10.64 203.63) rotate(-45)"/><rect x="228.75" y="96.76" width="1.25" height="6.33" rx="0.46" transform="translate(147.1 -136.35) rotate(47.26)"/><rect x="254.9" y="122.89" width="1.25" height="6.36" rx="0.41" transform="translate(163.99 -143.76) rotate(45)"/><rect class="cls-3" x="231.26" y="119.01" width="23.09" height="14.12" rx="7.06" transform="translate(255.02 399.38) rotate(-120)"/><path class="cls-13" d="M288.8,183.11h36a0,0,0,0,1,0,0v28.43a11.57,11.57,0,0,1-11.57,11.57H298.85a10.05,10.05,0,0,1-10.05-10.05V183.11a0,0,0,0,1,0,0Z" transform="translate(23.54 -31.72) rotate(6.15)"/><path class="cls-13" d="M292.88,208.32h3.92a5.28,5.28,0,0,1,5.28,5.28V273a5.28,5.28,0,0,1-5.28,5.28h-2.31a6.89,6.89,0,0,1-6.89-6.89V213.6a5.28,5.28,0,0,1,5.28-5.28Z" transform="translate(161.15 -114.82) rotate(30)"/><rect class="cls-3" x="277.3" y="318.35" width="9" height="28"/><rect class="cls-13" x="274.53" y="262.65" width="15" height="69.72" rx="5.87"/><rect x="277.3" y="340.35" width="9" height="15"/><path class="cls-5" d="M266.21,354.26h20a.84.84,0,0,1,.84.84v7.95a0,0,0,0,1,0,0H257.42a0,0,0,0,1,0,0v0A8.79,8.79,0,0,1,266.21,354.26Z" transform="translate(12.76 -9.34) rotate(2.01)"/><path class="cls-6" d="M257.36,363.06h29.58a.48.48,0,0,1,.48.48V365a.84.84,0,0,1-.84.84H258.29a.94.94,0,0,1-.94-.94v-1.83A0,0,0,0,1,257.36,363.06Z" transform="translate(12.96 -9.34) rotate(2.01)"/><circle class="cls-7" cx="282.8" cy="358.85" r="1.5"/></g></g></svg>
